X:1
T: Miss Gordon of Fochaber's Strathspey
C:William Marshall
R:Strathspey
Z: Bruck Shawyer
Q: 128
K:D
M:4/4
L:1/16
|: B2 |\
F2A2 A2B2 A3F Ad3 | FA3 A3g f4 d2f2 | g3e f3d e3d Be3 | d3B AF3 B4 E2B2 | 
F2A2 A2B2 A3F Ad3 | FA3 A3g f4 d2f2 | g3e f3d e3d Be3 | d3B AF3 B4 E2g2 | 
f2d2 f2ga f3d dg3 | f2d2 A2F2 d4 A2g2 | f2d2 f2ga bagf gfed | Be3 e3f g4 e2fg | 
a2f2 g2e2 f2d2 e2c2 | d2A2 dcBA F4 D2F2 | G2B2 G2E2 F2A2 F2D2 | B,E3 E3F G4 G2 :| 
